X:1
T:Never Grow Old
T:Never Grow Old
T:James Cleveland Moore
T:James Cleveland Moore, 1914
T:Public Domain Courtesy of the Cyber Hymnal™
T:Public Domain Courtesy of the Cyber Hymnal™
C:James Cleveland Moore
Z:Public Domain
Z:Courtesy of the Cyber Hymnal™
%%score ( 1 2 ) ( 3 4 )
L:1/8
M:6/4
K:Eb
V:1 treble 
V:2 treble 
V:3 bass 
V:4 bass 
V:1
 E[EF] | [EG]3 [E^F] [EG]2 [B,E]4 [EG][=FA] | [GB]3 [^F=A] [GB]2 [EG]4 [GB][GB] | %3
w: 1.~I have|heard of a land on the|far a- way strand, ’Tis a|
w: 2.~In that|beau- ti- ful home where we’ll|nev- er more roam, We shall|
w: 3.~When our|work here is done and the|life crown is won, And our|
 [Ac]2 [Ae]2 [Ac]2 [GB] [EG]3 E2 | [DF]6- [DF]4 E[EF] | [EG]3 [E^F] [EG]2 [B,E]4 [EG][=FA] | %6
w: beau- ti- ful home of the|soul; * Built by|Je- sus on high, where we|
w: be in the sweet by and|by; * Hap- py|praise to the King through e-|
w: trou- bles and tri- als are|o’er; * All our|sor- row will end, and our|
 [GB]3 [^F=A] [GB]2 [EG]4 [GB][GB] | [Ac]2 [Ae]2 [Ac]2 [GB] [EG]3 [DF]2 | [B,E]12 || %9
w: ne- ver shall die, ’Tis a|land where we ne- ver grow|old.|
w: ter- ni- ty sing, ’Tis a|land where we ne- ver shall|die.|
w: voic- es will blend, With the|loved ones who’ve gone on be-|fore.|
"^Refrain" [GB] [EG]3 [GB]2 e6 | [Ac] [Ae]3 [Ac]2 [GB]4 [GB][GB] | %11
w: Ne- ver grow old,|ne- ver grow old, In a|
w: ||
w: ||
 [GB]2 [EG]2 [EG]2 [EG] [B,F]3 [CE]2 | B12 | [GB] [EG]3 [GB]2 e6 | %14
w: land where we’ll ne- ver grow|old;|Ne- ver grow old,|
w: |||
w: |||
 [Ac] [Ae]3 [Ac]2 [GB]4 [GB][GB] | [GB]2 [EG]2 E2 [EG] [EG]3 [DF]2 | [B,E]6- [B,E]4 |] %17
w: ne- ver grow old, In a|land where we’ll ne- ver grow|old. *|
w: |||
w: |||
V:2
 E x | x12 | x12 | x10 E2 | x10 E x | x12 | x12 | x12 | x12 || x6 (G2 A2 B2) | x12 | x12 | %12
 (D6 F6) | x6 (G2 A2 B2) | x12 | x4 E2 x6 | x10 |] %17
V:3
 [E,G,][E,A,] | [E,B,]3 [E,=A,] [E,B,]2 [E,G,]4 [E,B,][E,B,] | %2
w: ~ ~|~ ~ ~ ~ ~ ~|
 [E,E]3 [E,E] [E,E]2 [E,B,]4 [E,E][E,E] | [A,E]2 [A,C]2 [A,E]2 [E,E] [E,B,]3 [C,=A,]2 | %4
w: ~ ~ ~ ~ ~ ~|~ ~ ~ ~ ~ ~|
 [B,,B,]6- [B,,B,]4 [E,G,][E,A,] | [E,B,]3 [E,=A,] [E,B,]2 [E,G,]4 [E,B,][E,B,] | %6
w: ~ * ~ ~|~ ~ ~ ~ ~ ~|
 [E,E]3 [E,E] [E,E]2 [E,B,]4 [E,E][E,E] | [A,E]2 [A,C]2 [A,E]2 [B,E] B,3 [B,,A,]2 | [E,G,]12 || %9
w: ~ ~ ~ ~ ~ ~|~ ~ ~ ~ ~ ~|~|
 [E,E] [E,B,]3 [E,E]2 B,4 [G,E]2 | [A,E] [A,C]3 [A,E]2 [E,E]4 [E,E][E,E] | %11
w: ~ ~ ~ ~ Where|we’ll ~ ~ ~ ~ ~|
 [E,E]2 [E,B,]2 [E,B,]2 [E,B,] [D,B,]3 [C,=A,]2 | (B,6 D6) | [E,E] [E,B,]3 [E,E]2 B,4 [G,E]2 | %14
w: ~ ~ ~ ~ ~ ~|~ *|~ ~ ~ ~ ~|
 [A,E] [A,C]3 [A,E]2 [E,E]4 [E,E][E,E] | [E,E]2 [E,B,]2 [C,=A,]2 [B,,B,] [B,,B,]3 [B,,_A,]2 | %16
w: Where we’ll * * * *||
 [E,G,]6- [E,G,]4 |] %17
w: |
V:4
 x2 | x12 | x12 | x12 | x12 | x12 | x12 | x7 B,3 x2 | x12 || x6 E,2 F,2 x2 | x12 | x12 | B,,12 | %13
 x6 E,2 F,2 x2 | x12 | x12 | x10 |] %17

